!!!COM: Beethoven, Ludwig van
!!!CDT: 1770///-1827///
!!!OTL: Piano Sonata no. 12 in A-flat major
!!!OTP: funeral march
!!!OPS: 26
!!!OMV: 2
!!!OMD: Scherzo: Allegro molto
**kern	**kern	**dynam
*staff2	*staff1	*staff1
*Ipiano	*Ipiano	*Ipiano
*>[A,B,B,C,C,D,D1,D,D2,A,B]	*>[A,B,B,C,C,D,D1,D,D2,A,B]	*>[A,B,B,C,C,D,D1,D,D2,A,B]
*>norep[A,B,C,D,D2,A,B]	*>norep[A,B,C,D,D2,A,B]	*>norep[A,B,C,D,D2,A,B]
*>A	*>A	*>A
*clefF4	*clefG2	*clefG2
*k[b-e-a-d-]	*k[b-e-a-d-]	*k[b-e-a-d-]
*A-:	*A-:	*A-:
*M3/4	*M3/4	*M3/4
*MM220	*MM220	*MM220
4r	(8a-/L	p
.	8b-/J)	.
=1	=1	=1
*	*^	*
2.f\	(2cc/	2.a-\	.
.	4ddn/	.	.
=2	=2	=2	=2
4e-\	[2.ee-/)	2g\	.
4r	.	.	.
4G'\	.	4b-\	.
=3	=3	=3	=3
4A-'\	(4ee-/]	4cc\	.
4F'\	4ff/)	4a-\	.
4B-'\	4ddn'/	4a-\	.
=4	=4	=4	=4
4E-'\	4ee-'/	4g\	.
4r	4r	4r	.
4r	(8dd-/L	4r	.
.	8ee-/J)	.	.
*clefG2	*	*	*
=5	=5	=5	=5
2.b-/	(2ff/	2.dd-\	.
.	4gg/	.	.
=6	=6	=6	=6
4a-/	[2.aa-/)	2cc\	.
4r	.	.	.
4c/	.	4ee-\	.
=7	=7	=7	=7
4d-'/	4aa-/]	(4ff\	.
4B-'/	4bb-/	4dd-\)	.
4e-'/	4gg'/	4dd-\	.
=8	=8	=8	=8
4A-/	4aa-'/	4cc\	.
4r	4r	4r	.
4r	(8a-/L	4r	.
.	8b-/J)	.	.
*clefF4	*	*	*
=9	=9	=9	=9
2.f\	4cc'/	2.a-\	.
.	4dd-'/	.	.
.	4ddn'/	.	.
=10	=10	=10	=10
4e-'\	[2.ee-'/	4g\	.
4f'\	.	4a-'\	.
4g'\	.	4b-'\	.
=11	=11	=11	=11
4A-'\	4ee-/]	4cc\	.
4F'\	4ff/	4a-\	.
4B-'\	4ddn/	4a-\	.
=12	=12	=12	=12
4E-'\	4ee-/	4g\	.
4r	4r	4r	.
4r	(8dd-/L	4r	.
.	8ee-/J)	.	.
*clefG2	*	*	*
=13	=13	=13	=13
2.b-\	4ff'/	2.dd-\	.
.	4gg-'/	.	.
.	4ggn'/	.	.
=14	=14	=14	=14
4a-'\	[2.aa-/	4cc'\	.
4b-'\	.	4dd-'\	.
4cc'\	.	4ee-'\	.
=15	=15	=15	=15
4d-'/	4aa-/]	4ff'\	.
4B-'/	4bb-/	4dd-'\	.
4e-'/	4gg'/	4dd-'\	.
=16	=16	=16	=16
4A-'/	4aa-'/	4cc'\	.
4r	4r	4r	.
*	*v	*v	*
=!|:	=!|:	=!|:
*>B	*>B	*>B
4r	(8A-/ 8c/L	p
.	8B-/) 8d-/J	.
*clefF4	*	*
=17	=17	=17
4AAA-'/	(2c/ 2e-/	.
4AA-'/	.	.
4r	4d-/ 4f/	.
=18	=18	=18
4AAA-'/	4e-'/) 4g-'/	.
4AA-/	4r	.
4r	4e-/ 4g-/	f
=19	=19	=19
4AAA-'/	4g-'\ 4cc'\	.
4AA-'/	4cc'\ 4ee-'\	.
4AAA-'/	[4ee-\ [4gg-\	.
=20	=20	=20
(4AAAn/	4ee-\] (4gg-\]	.
4BBB-/)	4ddn\ 4ff\)	.
4r	(8B-/ 8dn/L	p
.	8c/) 8e-/J	.
=21	=21	=21
4BBB-'/	(2dn/ 2f/	.
4BB-'/	.	.
4r	4en/ 4gn/	.
=22	=22	=22
4BBB-'/	4f'/) 4a-'/	.
4BB-'/	4r	.
4r	4f'/ 4a-'/	f
=23	=23	=23
4BBB-'/	4a-'\ 4ddn'\	.
4BB-'/	4dd'\ 4ff'\	.
4BBB-'/	[4ff\ [4aa-\	.
=24	=24	=24
(4BBBn/	4ff\] (4aa-\]	.
4CC/)	4een\ 4gg\)	.
4r	(8c/ 8en/L	p
.	8dn/) 8f/J	.
=25	=25	=25
4CC'/	(2en/ 2g/	.
4C'/	.	.
4r	4f/ 4a-/	.
=26	=26	=26
4CC'/	4g/) 4b-/	.
4C'/	4r	.
4r	(8c/ 8en/L	f
.	8dn/) 8f/J	.
=27	=27	=27
4CC'/	4en'/ 4g'/	.
4C'/	(8c/ 8e/L	.
.	8dn/ 8f/	.
4r	8e/ 8g/	.
.	8f/) 8a-/J	.
=28	=28	=28
4CC/	4g'/ 4b-'/	.
4C'/	(8en/ 8g/L	.
.	8f/ 8a-/	.
4r	8g/ 8b-/	.
.	8a-/) 8cc/J	.
=29	=29	=29
4C'/	4b-'\ 4dd-'\	p
4c'\	4r	.
4r	4g'\ 4b-'\	.
=30	=30	=30
4C'/	4en'/ 4g'/	.
4c'\	4r	.
4r	4g'\ 4b-'\	.
=31	=31	=31
4C'/	4b-'\ 4dd-'\	.
4c'\	4r	.
4r	4g'\ 4b-'\	.
=32	=32	=32
4C'/	4en/ 4g/	.
4c'\	4r	.
4r	4g'/ 4b-'/	.
=33	=33	=33
4En'\	2g/ 2b-/ 2dd-/	>
4en'\	.	.
4r	4g/ 4b-/ 4cc/	.
=34	=34	=34
4En'\	2g/ 2b-/ 2dd-/	.
4en'\	.	.
4r	4g/ 4b-/ 4cc/	.
=35	=35	=35
4En'\	2g/ 2b-/ 2dd-/	.
4en'\	.	.
4r	4g/ 4b-/ 4cc/	.
=36	=36	=36
4En'\	2g/ 2b-/ 2dd-/	.
4en'\	.	.
4r	4g/ 4b-/ 4cc/	.
=37	=37	=37
4G'\	2en/ 2b-/ 2dd-/	.
4g'\	.	.
4r	4e/ 4b-/ 4cc/	.
=38	=38	=38
4G'\	2en/ 2b-/ 2dd-/	.
4g'\	.	.
4r	4e/ 4b-/ 4cc/	.
=39	=39	=39
4G'\	2en/ 2b-/ 2dd-/	.
4g'\	.	.
4r	4e/ 4b-/ 4cc/	.
=40	=40	=40
4G'\	2en/ 2b-/ (2dd-/	.
4g'\	.	.
4r	4e/ 4b-/ 4cc/)	.
=41	=41	=41
4r	4en/ 4b-/ 4dd-/	pp
(4G\	4r	.
4g\)	4r	.
=42	=42	=42
4r	4en/ 4b-/ 4cc/	.
(4G\	4r	.
4g\)	4r	.
=43	=43	=43
4r	4en/ 4b-/ 4cc/	.
(4G\	4r	.
4g\)	4r	.
=44	=44	=44
4r	4en/ 4b-/ 4cc/	<
4G'\	4r	.
(8A-\L	4r	.
8B-\J)	.	.
=45	=45	=45
*^	*	*
(2c/	2.F\	8aa-\L	.
.	.	8gg\	.
.	.	8aa-\	.
.	.	8ccc\	.
4d-/	.	8bb-\	.
.	.	8aa-\J	.
*v	*v	*	*
=46	=46	=46
4E-'\ 4e-'\)	8gg\L	.
.	8ff\	.
4r	8ee-\	.
.	8ddn\	.
[4En\ [4en\	8cc\	.
.	8b-\J	.
=47	=47	=47
4E\] (4e\]	8a-/L	.
.	8g/	.
4F\ 4f\)	8a-/	.
.	8cc/	.
4Dn'\ 4dn'\	8b-/	.
.	8a-/J	.
=48	=48	=48
4E-'\ 4e-'\	8g/L	.
.	8e-/	.
4r	8g/	.
.	8a-/	.
(8D-\L	8b-/	.
8E-\J)	8cc/J	.
=49	=49	=49
*^	*	*
(2F/	2.BB-\	8dd-\L	.
.	.	8cc\	.
.	.	8dd-\	.
.	.	8ff\	.
4G/	.	8ee-\	.
.	.	8dd-\J	.
*v	*v	*	*
=50	=50	=50
4AA-'\ 4A-'\)	8cc/L	.
.	8b-/	.
4r	8a-/	.
.	8g/	.
[4AAn\ [4An\	8f/	.
.	8e-/J	.
=51	=51	=51
4AA\] (4A\]	8d-/L	.
.	8c/	.
4BB-\ 4B-\)	8d-/	.
.	8f/	.
4GG'\ 4G'\	8e-/	.
.	8d-/J	.
=52	=52	=52
8AA-\L	4c/	.
8C\	.	.
8D-\	4r	.
8E-\	.	.
8F\	8a-/L	.
8G\J	8b-/J	.
=53	=53	=53
8A-\L	2c/ (2cc/	f
8G\	.	.
8A-\	.	.
8F\	.	.
8B-\	4dn/ 4ddn/	.
8A-\J	.	.
=54	=54	=54
8G\L	4e-\ 4ee-\)	.
8F\	.	.
8E-\	4r	.
8Dn\	.	.
8C\	[4en\ [4een\	.
8BB-\J	.	.
=55	=55	=55
8AA-/L	4e\] (4ee\]	.
8GG/	.	.
8AA-/	4f\ 4ff\)	.
8C/	.	.
8BB-/	4dn''\ 4ddn''\	.
8AA-/J	.	.
=56	=56	=56
8GG/L	4e-\ 4ee-\	.
8EE-/	.	.
8GG/	4r	.
8AA-/	.	.
8BB-/	(8dd-\L	.
8C/J	8ee-\J)	.
=57	=57	=57
8D-/L	2f\ (2ff\	.
8C/	.	.
8D-/	.	.
8BB-/	.	.
8E-/	4g\ 4gg\	.
8D-/J	.	.
=58	=58	=58
8C/L	4a-''\ 4aa-''\)	.
8BB-/	.	.
8AA-/	4r	.
8GG/	.	.
8FF/	[4an\ [4aan\	.
8EE-/J	.	.
=59	=59	=59
8DD-/L	4a\] (4aa\]	.
8CC/	.	.
8DD-/	4b-\ 4ccc\)	.
8FF/	.	.
8EE-/	4g''\ 4gg''\	.
8DD-/J	.	.
=60	=60	=60
8CC/L	4a-\ 4aa-\	.
8EE-/	.	.
8AA-/	4r	.
8GG/	.	.
8FF/	[4cc\ [4aan\ [4ccc\	.
8EE-/J	.	.
=61	=61	=61
8DD-/L	4cc\] 4aan\] (4ccc\]	.
8BBB-/	.	.
8DD-/	4dd-\ 4bb-\ 4ddd-\)	.
8BBB-/	.	.
8EE-/	4b-''\ 4gg''\ 4bb-''\	.
8DD-/J	.	.
=62	=62	=62
8CC/L	4cc\ 4aa-\ 4ccc\	.
8EE-/	.	.
8AA-/	4r	.
8GG/	.	.
8FF/	[4an\ [4cc\ [4aan\	.
8EE-/J	.	.
=63	=63	=63
8DD-/L	4a\] 4cc\] (4aa\]	.
8BBB-/	.	.
8DD-/	4b-\ 4dd-\ 4bb-\)	.
8BBB-/	.	.
8EE-/	4g''\ 4b-''\ 4gg''\	.
8EE-/J	.	.
=64	=64	=64
(8AAA-/L	4a-\ 4cc\ 4aa-\	.
8CC/	.	.
8EE-/	4r	.
8DD-/	.	.
8CC/	4b-''\ 4gg''\ 4bb-''\	<
8BBB-/J	.	.
=65	=65	=65
8AAA-/L	4cc''\ 4aa-''\ 4ccc''\	.
8CC/	.	.
8EE-/	4r	.
8DD-/	.	.
8CC/	4g''\ 4b-''\ 4gg''\	.
8BBB-/J	.	.
=66	=66	=66
8AAA-/L	4a-''\ 4cc''\ 4aa-''\	.
8CC/	.	.
8EE-/	4r	.
8DD-/	.	.
8CC/	4G''/ 4B-''/ 4g''/	ff
8BBB-/J	.	.
=67	=67	=67
4AAA-/)	4A-''/ 4c''/ 4a-''/	.
4r	4r	.
=:|!	=:|!	=:|!
*>C	*>C	*>C
*k[b-e-a-d-g-]	*k[b-e-a-d-g-]	*k[b-e-a-d-g-]
*M3/4	*M3/4	*M3/4
*^	*	*
4A-/	4r	4r	.
=68	=68	=68	=68
2F/	2D-\	(2f/	p
4A-/	4AA-\	4r	.
*v	*v	*	*
=69	=69	=69
*^	*	*
*	*^	*	*
2E-/	2C\	2.CC\	2e-/	.
*	*v	*v	*	*
4A-/	4AA-\	4r	.
*v	*v	*	*
=70	=70	=70
*^	*	*
*	*^	*	*
2G-/	2E-\	2.EE-\	2c/ 2g-/	.
*	*v	*v	*	*
4A-/	4AA-\	4r	.
=71	=71	=71	=71
2F/ 2A-/	2D-\	2f/	.
4r	4AA-\	4d-/	.
=72	=72	=72	=72
2F/ 2A-/	2.FF\	2a-/	<
4D-/	.	4d-/	.
*v	*v	*	*
=73	=73	=73
2GG-\ 2D-\ 2G-\	2d-\	.
4FF\ 4F\	4B-/ 4d-/ 4e-/	.
=74	=74	=74
2GG-\ 2G-\	2B-/ 2d-/ 2e-/	p
4GGn\ 4Gn\	4B-/ 4d-/ 4e-/)	.
=75	=75	=75
4AA-'\ 4A-'\	4c/ 4e-/	.
4r	4r	.
=:|!|:	=:|!|:	=:|!|:
*>D	*>D	*>D
4r	4a-/	.
=76	=76	=76
*^	*	*
2A-/	2.AA-\	2c/ 2cc/	.
4E-/	.	4a-/	.
=77	=77	=77	=77
2B-/	2.BB-\	2d-/ 2dd-/	.
4E-/	.	4gn/	.
=78	=78	=78	=78
2c/	2.C\	2e-\ 2g-\ 2ee-\	.
4A-/	.	4a-/	.
=79	=79	=79	=79
2d-/	2.D-\	2f\ 2ff\	.
4A-/	.	4a-/	.
=80	=80	=80	=80
2d-/	2.D-\	2f\ 2ff\	.
4A-/	.	4dd-\	.
=81	=81	=81	=81
2e-/	2.E-\	2g-\ 2gg-\	.
4A-/	.	4cc\	.
=82	=82	=82	=82
2f/	2.F\	2a-\ 2cc-\ 2aa-\	.
4d-/	.	4dd-\	.
=83	=83	=83	=83
2g-/	2.G-\	2b-\ 2bb-\	.
4d-/	.	4dd-\	.
=84	=84	=84	=84
*	*	*^	*
2g-/	2.G-\	2bb-/	2.b-\	<
4d-/	.	4dd-/	.	.
=85	=85	=85	=85	=85
2f/	2.F\	2ccc-/	2.cc-\	.
4d-/	.	4dd-/	.	.
=86	=86	=86	=86	=86
2f/	2.F\	2aan/	2.an\	.
4d-/	.	4dd-/	.	.
=87	=87	=87	=87	=87
2g-/	2.G-\	(2bb-/	2.b-\	.
4d-/	.	4dd-/	.	.
=88	=88	=88	=88	=88
[2f-/	2.Gn\	2.ff-/	[2b-\	.
4d-/ 4f-/]	.	.	4b-\] 4dd-\	.
=89	=89	=89	=89	=89
2fn/	2.A-\	[2.ffn/	2a-\	p
4d-/	.	.	4a-\ 4dd-\	.
=90	=90	=90	=90	=90
2A-/	2.AA-\	4ff/]	2g-\ 2cc\	.
.	.	4gg-/	.	.
4A-/	.	4ee-/	4g-\ 4cc\	.
*	*	*v	*v	*
*v	*v	*	*
=91	=91	=91
*>D1	*>D1	*>D1
*^	*	*
*	*	*^	*
4D-/	4D-\	4dd-/)	4f\	.
4r	4r	4r	4r	.
*	*	*v	*v	*
*v	*v	*	*
=92:|!	=92:|!	=92:|!
*>D2	*>D2	*>D2
*^	*	*
*	*	*^	*
4D-/	4D-\	4dd-/	4f\	.
(8D-/L	4r	4r	4r	.
8E-/J)	.	.	.	.
*	*	*v	*v	*
=93	=93	=93	=93
(2F/	2.BB-\	4r	.
.	.	[2d-/ [2dd-/	.
4Gn/	.	.	.
=94	=94	=94	=94
4A-/)	4AA-\	4d-/] 4dd-/]	.
4r	4r	4c/ 4cc/	.
(8A-/L	4r	4r	.
8B-/J	.	.	.
=95	=95	=95	=95
(2c/)	2.F\	4r	.
.	.	[2a-\ [2aa-\	.
4dn/	.	.	.
=96	=96	=96	=96
4e-/)	4E-\	4a-\] 4aa-\]	.
4r	4r	4gn\ 4ggn\	.
*v	*v	*	*
=	=	=
*-	*-	*-
!!!ENC: Craig Stuart Sapp
!!!END: 2008/02/10/
